X: 1
T: Pease Bridge
C: Abraham MacIntosh
R: strathspey
B: Long Pond Coll.
Z: John Chambers <jc:trillian.mit.edu>
N: from Elke Baker
M: C
L: 1/16
K: Dm
fe \
| "Dm"d3A F3A d3e f3d | "Am"ce3 A3c "C"G3c "A7"E3^c \
| "Dm"d3A F3A d3e f3d | "A7"(3e2f2g2 (3g2f2e2 "D"fd3 d2 :|
fg \
| "Dm"a3f d3a fd3 a3f | "C"g3e c3g ec3 g3e \
| "Dm"a3f d3a fd3 a3f | "A7"(3e2f2g2 (3g2f2e2 "D"fd3 d2 |]
fg \
| "Dm"a3f d3a fd3 a3f | "C"g3e c3g ec3 e2fg \
| "F"(3a2f2a2 "Em"(3g2e2g2 "Dm"(3f2d2f2 "A7"(3e2^c2e2 | "Gm"dB3 "A7"A3G "Dm"FD3 D2 |]
